www/assets/icons/tonality.svg

<svg xmlns="http://www.w3.org/2000/svg" width="24" height="24" viewBox="0 0 24 24" fill='currentColor'><path d="M12 2C6.48 2 2 6.48 2 12s4.48 10 10 10 10-4.48 10-10S17.52 2 12 2m-1 17.93c-3.94-.49-7-3.85-7-7.93s3.05-7.44 7-7.93zm2-15.86c1.03.13 2 .45 2.87.93H13zM13 7h5.24c.25.31.48.65.68 1H13zm0 3h6.74c.08.33.15.66.19 1H13zm0 9.93V19h2.87c-.87.48-1.84.8-2.87.93M18.24 17H13v-1h5.92c-.2.35-.43.69-.68 1m1.5-3H13v-1h6.93c-.04.34-.11.67-.19 1"/></svg>

<svg width="24" height="24" viewBox="0 0 24 24" xmlns="http://www.w3.org/2000/svg" fill='currentColor'><path d="M12 2C6.48 2 2 6.48 2 12C2 17.52 6.48 22 12 22C17.52 22 22 17.52 22 12C22 6.48 17.52 2 12 2ZM11 19.93C7.06 19.44 4 16.08 4 12C4 7.92 7.05 4.56 11 4.07V19.93ZM13 4.07C14.03 4.2 15 4.52 15.87 5H13V4.07ZM13 7H18.24C18.49 7.31 18.72 7.65 18.92 8H13V7ZM13 10H19.74C19.82 10.33 19.89 10.66 19.93 11H13V10ZM13 19.93V19H15.87C15 19.48 14.03 19.8 13 19.93ZM18.24 17H13V16H18.92C18.72 16.35 18.49 16.69 18.24 17ZM19.74 14H13V13H19.93C19.89 13.34 19.82 13.67 19.74 14Z"/></svg>
